src/assets/img/outline-text/portfolio.svg

<svg width="625" height="77" viewBox="0 0 625 77" fill="none" xmlns="http://www.w3.org/2000/svg">
<mask id="path-1-outside-1_3078_91627" maskUnits="userSpaceOnUse" x="0.400391" y="0.640137" width="624" height="76" fill="black">
<rect fill="white" x="0.400391" y="0.640137" width="624" height="76"/>
<path d="M39.2004 2.72014C45.6084 2.72014 51.0444 3.69214 55.5084 5.63614C59.9724 7.58014 63.3564 10.4241 65.6604 14.1681C67.9644 17.9121 69.1164 22.4841 69.1164 27.8841C69.1164 33.2841 67.9644 37.8561 65.6604 41.6001C63.3564 45.3441 59.9724 48.1881 55.5084 50.1321C51.0444 52.0761 45.6084 53.0481 39.2004 53.0481H26.5644V74.0001H1.40039V2.72014H39.2004ZM35.0964 35.2281C37.8324 35.2281 39.9924 34.6521 41.5764 33.5001C43.1604 32.2761 43.9524 30.4041 43.9524 27.8841C43.9524 25.3641 43.1604 23.5281 41.5764 22.3761C39.9924 21.1521 37.8324 20.5401 35.0964 20.5401H26.5644V35.2281H35.0964Z"/>
<path d="M111.674 1.64014C119.234 1.64014 125.714 3.08014 131.114 5.96013C136.514 8.84014 140.654 13.0161 143.534 18.4881C146.414 23.9601 147.854 30.5841 147.854 38.3601C147.854 46.1361 146.414 52.7601 143.534 58.2321C140.654 63.7041 136.514 67.8801 131.114 70.7601C125.714 73.6401 119.234 75.0801 111.674 75.0801C104.186 75.0801 97.7063 73.6401 92.2343 70.7601C86.8343 67.8801 82.6583 63.7041 79.7063 58.2321C76.8263 52.7601 75.3863 46.1361 75.3863 38.3601C75.3863 30.5841 76.8263 23.9601 79.7063 18.4881C82.6583 13.0161 86.8343 8.84014 92.2343 5.96013C97.7063 3.08014 104.186 1.64014 111.674 1.64014ZM111.674 20.5401C109.226 20.5401 107.21 21.1881 105.626 22.4841C104.114 23.7081 102.962 25.6161 102.17 28.2081C101.45 30.8001 101.09 34.1841 101.09 38.3601C101.09 42.4641 101.45 45.8481 102.17 48.5121C102.962 51.1041 104.114 53.0481 105.626 54.3441C107.21 55.5681 109.226 56.1801 111.674 56.1801C114.122 56.1801 116.102 55.5681 117.614 54.3441C119.198 53.0481 120.35 51.1041 121.07 48.5121C121.79 45.8481 122.15 42.4641 122.15 38.3601C122.15 34.1841 121.79 30.8001 121.07 28.2081C120.35 25.6161 119.198 23.7081 117.614 22.4841C116.102 21.1881 114.122 20.5401 111.674 20.5401Z"/>
<path d="M194.998 2.72014C204.286 2.72014 211.414 4.80814 216.382 8.98413C221.35 13.0881 223.834 18.5601 223.834 25.4001C223.834 33.2481 221.386 39.1521 216.49 43.1121C211.666 47.0721 204.61 49.0521 195.322 49.0521L192.838 50.3481H180.958V74.0001H156.334V2.72014H194.998ZM190.678 33.8241C193.342 33.8241 195.322 33.3561 196.618 32.4201C197.986 31.4121 198.67 29.6841 198.67 27.2361C198.67 24.8601 197.986 23.1681 196.618 22.1601C195.322 21.1521 193.342 20.6481 190.678 20.6481H180.958V33.8241H190.678ZM205.582 39.1161L227.83 74.0001H200.506L183.874 42.7881L205.582 39.1161Z"/>
<path d="M299.01 2.72014V21.1881H276.762V74.0001H251.598V21.1881H229.242V2.72014H299.01Z"/>
<path d="M365.598 21.1881H331.685V31.1241H359.117V49.5921H331.685V74.0001H306.521V2.72014H365.598V21.1881Z"/>
<path d="M406.881 1.64014C414.441 1.64014 420.921 3.08014 426.321 5.96013C431.721 8.84014 435.861 13.0161 438.741 18.4881C441.621 23.9601 443.061 30.5841 443.061 38.3601C443.061 46.1361 441.621 52.7601 438.741 58.2321C435.861 63.7041 431.721 67.8801 426.321 70.7601C420.921 73.6401 414.441 75.0801 406.881 75.0801C399.393 75.0801 392.913 73.6401 387.441 70.7601C382.041 67.8801 377.865 63.7041 374.913 58.2321C372.033 52.7601 370.593 46.1361 370.593 38.3601C370.593 30.5841 372.033 23.9601 374.913 18.4881C377.865 13.0161 382.041 8.84014 387.441 5.96013C392.913 3.08014 399.393 1.64014 406.881 1.64014ZM406.881 20.5401C404.433 20.5401 402.417 21.1881 400.833 22.4841C399.321 23.7081 398.169 25.6161 397.377 28.2081C396.657 30.8001 396.297 34.1841 396.297 38.3601C396.297 42.4641 396.657 45.8481 397.377 48.5121C398.169 51.1041 399.321 53.0481 400.833 54.3441C402.417 55.5681 404.433 56.1801 406.881 56.1801C409.329 56.1801 411.309 55.5681 412.821 54.3441C414.405 53.0481 415.557 51.1041 416.277 48.5121C416.997 45.8481 417.357 42.4641 417.357 38.3601C417.357 34.1841 416.997 30.8001 416.277 28.2081C415.557 25.6161 414.405 23.7081 412.821 22.4841C411.309 21.1881 409.329 20.5401 406.881 20.5401Z"/>
<path d="M476.705 55.5321H508.997V74.0001H451.541V2.72014H476.705V55.5321Z"/>
<path d="M542.096 2.72014V74.0001H516.932V2.72014H542.096Z"/>
<path d="M586.916 1.64014C594.476 1.64014 600.956 3.08014 606.356 5.96013C611.756 8.84014 615.896 13.0161 618.776 18.4881C621.656 23.9601 623.096 30.5841 623.096 38.3601C623.096 46.1361 621.656 52.7601 618.776 58.2321C615.896 63.7041 611.756 67.8801 606.356 70.7601C600.956 73.6401 594.476 75.0801 586.916 75.0801C579.428 75.0801 572.948 73.6401 567.476 70.7601C562.076 67.8801 557.9 63.7041 554.948 58.2321C552.068 52.7601 550.628 46.1361 550.628 38.3601C550.628 30.5841 552.068 23.9601 554.948 18.4881C557.9 13.0161 562.076 8.84014 567.476 5.96013C572.948 3.08014 579.428 1.64014 586.916 1.64014ZM586.916 20.5401C584.468 20.5401 582.452 21.1881 580.868 22.4841C579.356 23.7081 578.204 25.6161 577.412 28.2081C576.692 30.8001 576.332 34.1841 576.332 38.3601C576.332 42.4641 576.692 45.8481 577.412 48.5121C578.204 51.1041 579.356 53.0481 580.868 54.3441C582.452 55.5681 584.468 56.1801 586.916 56.1801C589.364 56.1801 591.344 55.5681 592.856 54.3441C594.44 53.0481 595.592 51.1041 596.312 48.5121C597.032 45.8481 597.392 42.4641 597.392 38.3601C597.392 34.1841 597.032 30.8001 596.312 28.2081C595.592 25.6161 594.44 23.7081 592.856 22.4841C591.344 21.1881 589.364 20.5401 586.916 20.5401Z"/>
</mask>
<path d="M39.2004 2.72014C45.6084 2.72014 51.0444 3.69214 55.5084 5.63614C59.9724 7.58014 63.3564 10.4241 65.6604 14.1681C67.9644 17.9121 69.1164 22.4841 69.1164 27.8841C69.1164 33.2841 67.9644 37.8561 65.6604 41.6001C63.3564 45.3441 59.9724 48.1881 55.5084 50.1321C51.0444 52.0761 45.6084 53.0481 39.2004 53.0481H26.5644V74.0001H1.40039V2.72014H39.2004ZM35.0964 35.2281C37.8324 35.2281 39.9924 34.6521 41.5764 33.5001C43.1604 32.2761 43.9524 30.4041 43.9524 27.8841C43.9524 25.3641 43.1604 23.5281 41.5764 22.3761C39.9924 21.1521 37.8324 20.5401 35.0964 20.5401H26.5644V35.2281H35.0964Z" stroke="white" stroke-opacity="0.3" stroke-width="2" mask="url(#path-1-outside-1_3078_91627)"/>
<path d="M111.674 1.64014C119.234 1.64014 125.714 3.08014 131.114 5.96013C136.514 8.84014 140.654 13.0161 143.534 18.4881C146.414 23.9601 147.854 30.5841 147.854 38.3601C147.854 46.1361 146.414 52.7601 143.534 58.2321C140.654 63.7041 136.514 67.8801 131.114 70.7601C125.714 73.6401 119.234 75.0801 111.674 75.0801C104.186 75.0801 97.7063 73.6401 92.2343 70.7601C86.8343 67.8801 82.6583 63.7041 79.7063 58.2321C76.8263 52.7601 75.3863 46.1361 75.3863 38.3601C75.3863 30.5841 76.8263 23.9601 79.7063 18.4881C82.6583 13.0161 86.8343 8.84014 92.2343 5.96013C97.7063 3.08014 104.186 1.64014 111.674 1.64014ZM111.674 20.5401C109.226 20.5401 107.21 21.1881 105.626 22.4841C104.114 23.7081 102.962 25.6161 102.17 28.2081C101.45 30.8001 101.09 34.1841 101.09 38.3601C101.09 42.4641 101.45 45.8481 102.17 48.5121C102.962 51.1041 104.114 53.0481 105.626 54.3441C107.21 55.5681 109.226 56.1801 111.674 56.1801C114.122 56.1801 116.102 55.5681 117.614 54.3441C119.198 53.0481 120.35 51.1041 121.07 48.5121C121.79 45.8481 122.15 42.4641 122.15 38.3601C122.15 34.1841 121.79 30.8001 121.07 28.2081C120.35 25.6161 119.198 23.7081 117.614 22.4841C116.102 21.1881 114.122 20.5401 111.674 20.5401Z" stroke="white" stroke-opacity="0.3" stroke-width="2" mask="url(#path-1-outside-1_3078_91627)"/>
<path d="M194.998 2.72014C204.286 2.72014 211.414 4.80814 216.382 8.98413C221.35 13.0881 223.834 18.5601 223.834 25.4001C223.834 33.2481 221.386 39.1521 216.49 43.1121C211.666 47.0721 204.61 49.0521 195.322 49.0521L192.838 50.3481H180.958V74.0001H156.334V2.72014H194.998ZM190.678 33.8241C193.342 33.8241 195.322 33.3561 196.618 32.4201C197.986 31.4121 198.67 29.6841 198.67 27.2361C198.67 24.8601 197.986 23.1681 196.618 22.1601C195.322 21.1521 193.342 20.6481 190.678 20.6481H180.958V33.8241H190.678ZM205.582 39.1161L227.83 74.0001H200.506L183.874 42.7881L205.582 39.1161Z" stroke="white" stroke-opacity="0.3" stroke-width="2" mask="url(#path-1-outside-1_3078_91627)"/>
<path d="M299.01 2.72014V21.1881H276.762V74.0001H251.598V21.1881H229.242V2.72014H299.01Z" stroke="white" stroke-opacity="0.3" stroke-width="2" mask="url(#path-1-outside-1_3078_91627)"/>
<path d="M365.598 21.1881H331.685V31.1241H359.117V49.5921H331.685V74.0001H306.521V2.72014H365.598V21.1881Z" stroke="white" stroke-opacity="0.3" stroke-width="2" mask="url(#path-1-outside-1_3078_91627)"/>
<path d="M406.881 1.64014C414.441 1.64014 420.921 3.08014 426.321 5.96013C431.721 8.84014 435.861 13.0161 438.741 18.4881C441.621 23.9601 443.061 30.5841 443.061 38.3601C443.061 46.1361 441.621 52.7601 438.741 58.2321C435.861 63.7041 431.721 67.8801 426.321 70.7601C420.921 73.6401 414.441 75.0801 406.881 75.0801C399.393 75.0801 392.913 73.6401 387.441 70.7601C382.041 67.8801 377.865 63.7041 374.913 58.2321C372.033 52.7601 370.593 46.1361 370.593 38.3601C370.593 30.5841 372.033 23.9601 374.913 18.4881C377.865 13.0161 382.041 8.84014 387.441 5.96013C392.913 3.08014 399.393 1.64014 406.881 1.64014ZM406.881 20.5401C404.433 20.5401 402.417 21.1881 400.833 22.4841C399.321 23.7081 398.169 25.6161 397.377 28.2081C396.657 30.8001 396.297 34.1841 396.297 38.3601C396.297 42.4641 396.657 45.8481 397.377 48.5121C398.169 51.1041 399.321 53.0481 400.833 54.3441C402.417 55.5681 404.433 56.1801 406.881 56.1801C409.329 56.1801 411.309 55.5681 412.821 54.3441C414.405 53.0481 415.557 51.1041 416.277 48.5121C416.997 45.8481 417.357 42.4641 417.357 38.3601C417.357 34.1841 416.997 30.8001 416.277 28.2081C415.557 25.6161 414.405 23.7081 412.821 22.4841C411.309 21.1881 409.329 20.5401 406.881 20.5401Z" stroke="white" stroke-opacity="0.3" stroke-width="2" mask="url(#path-1-outside-1_3078_91627)"/>
<path d="M476.705 55.5321H508.997V74.0001H451.541V2.72014H476.705V55.5321Z" stroke="white" stroke-opacity="0.3" stroke-width="2" mask="url(#path-1-outside-1_3078_91627)"/>
<path d="M542.096 2.72014V74.0001H516.932V2.72014H542.096Z" stroke="white" stroke-opacity="0.3" stroke-width="2" mask="url(#path-1-outside-1_3078_91627)"/>
<path d="M586.916 1.64014C594.476 1.64014 600.956 3.08014 606.356 5.96013C611.756 8.84014 615.896 13.0161 618.776 18.4881C621.656 23.9601 623.096 30.5841 623.096 38.3601C623.096 46.1361 621.656 52.7601 618.776 58.2321C615.896 63.7041 611.756 67.8801 606.356 70.7601C600.956 73.6401 594.476 75.0801 586.916 75.0801C579.428 75.0801 572.948 73.6401 567.476 70.7601C562.076 67.8801 557.9 63.7041 554.948 58.2321C552.068 52.7601 550.628 46.1361 550.628 38.3601C550.628 30.5841 552.068 23.9601 554.948 18.4881C557.9 13.0161 562.076 8.84014 567.476 5.96013C572.948 3.08014 579.428 1.64014 586.916 1.64014ZM586.916 20.5401C584.468 20.5401 582.452 21.1881 580.868 22.4841C579.356 23.7081 578.204 25.6161 577.412 28.2081C576.692 30.8001 576.332 34.1841 576.332 38.3601C576.332 42.4641 576.692 45.8481 577.412 48.5121C578.204 51.1041 579.356 53.0481 580.868 54.3441C582.452 55.5681 584.468 56.1801 586.916 56.1801C589.364 56.1801 591.344 55.5681 592.856 54.3441C594.44 53.0481 595.592 51.1041 596.312 48.5121C597.032 45.8481 597.392 42.4641 597.392 38.3601C597.392 34.1841 597.032 30.8001 596.312 28.2081C595.592 25.6161 594.44 23.7081 592.856 22.4841C591.344 21.1881 589.364 20.5401 586.916 20.5401Z" stroke="white" stroke-opacity="0.3" stroke-width="2" mask="url(#path-1-outside-1_3078_91627)"/>
</svg>

<svg xmlns="http://www.w3.org/2000/svg" width="625" height="77" fill="none" xmlns:v="https://vecta.io/nano"><mask id="A" maskUnits="userSpaceOnUse" x=".4" y=".64" width="624" height="76" fill="#000"><path fill="#fff" d="M.4.64h624v76H.4z"/><path d="M39.2 2.72c6.408 0 11.844.972 16.308 2.916s7.848 4.788 10.152 8.532 3.456 8.316 3.456 13.716-1.152 9.972-3.456 13.716-5.688 6.588-10.152 8.532-9.9 2.916-16.308 2.916H26.564V74H1.4V2.72h37.8zm-4.104 32.508c2.736 0 4.896-.576 6.48-1.728 1.584-1.224 2.376-3.096 2.376-5.616s-.792-4.356-2.376-5.508c-1.584-1.224-3.744-1.836-6.48-1.836h-8.532v14.688h8.532zM111.674 1.64c7.56 0 14.04 1.44 19.44 4.32s9.54 7.056 12.42 12.528 4.32 12.096 4.32 19.872-1.44 14.4-4.32 19.872-7.02 9.648-12.42 12.528-11.88 4.32-19.44 4.32c-7.488 0-13.968-1.44-19.44-4.32-5.4-2.88-9.576-7.056-12.528-12.528-2.88-5.472-4.32-12.096-4.32-19.872s1.44-14.4 4.32-19.872c2.952-5.472 7.128-9.648 12.528-12.528 5.472-2.88 11.952-4.32 19.44-4.32zm0 18.9c-2.448 0-4.464.648-6.048 1.944-1.512 1.224-2.664 3.132-3.456 5.724-.72 2.592-1.08 5.976-1.08 10.152 0 4.104.36 7.488 1.08 10.152.792 2.592 1.944 4.536 3.456 5.832 1.584 1.224 3.6 1.836 6.048 1.836s4.428-.612 5.94-1.836c1.584-1.296 2.736-3.24 3.456-5.832.72-2.664 1.08-6.048 1.08-10.152 0-4.176-.36-7.56-1.08-10.152s-1.872-4.5-3.456-5.724c-1.512-1.296-3.492-1.944-5.94-1.944zm83.324-17.82c9.288 0 16.416 2.088 21.384 6.264 4.968 4.104 7.452 9.576 7.452 16.416 0 7.848-2.448 13.752-7.344 17.712-4.824 3.96-11.88 5.94-21.168 5.94l-2.484 1.296h-11.88V74h-24.624V2.72h38.664zm-4.32 31.104c2.664 0 4.644-.468 5.94-1.404 1.368-1.008 2.052-2.736 2.052-5.184 0-2.376-.684-4.068-2.052-5.076-1.296-1.008-3.276-1.512-5.94-1.512h-9.72v13.176h9.72zm14.904 5.292L227.83 74h-27.324l-16.632-31.212 21.708-3.672zM299.01 2.72v18.468h-22.248V74h-25.164V21.188h-22.356V2.72h69.768zm66.588 18.468h-33.913v9.936h27.432v18.468h-27.432V74h-25.164V2.72h59.077v18.468zM406.881 1.64c7.56 0 14.04 1.44 19.44 4.32s9.54 7.056 12.42 12.528 4.32 12.096 4.32 19.872-1.44 14.4-4.32 19.872-7.02 9.648-12.42 12.528-11.88 4.32-19.44 4.32c-7.488 0-13.968-1.44-19.44-4.32-5.4-2.88-9.576-7.056-12.528-12.528-2.88-5.472-4.32-12.096-4.32-19.872s1.44-14.4 4.32-19.872c2.952-5.472 7.128-9.648 12.528-12.528 5.472-2.88 11.952-4.32 19.44-4.32zm0 18.9c-2.448 0-4.464.648-6.048 1.944-1.512 1.224-2.664 3.132-3.456 5.724-.72 2.592-1.08 5.976-1.08 10.152 0 4.104.36 7.488 1.08 10.152.792 2.592 1.944 4.536 3.456 5.832 1.584 1.224 3.6 1.836 6.048 1.836s4.428-.612 5.94-1.836c1.584-1.296 2.736-3.24 3.456-5.832.72-2.664 1.08-6.048 1.08-10.152 0-4.176-.36-7.56-1.08-10.152s-1.872-4.5-3.456-5.724c-1.512-1.296-3.492-1.944-5.94-1.944zm69.824 34.992h32.292V74h-57.456V2.72h25.164v52.812zM542.096 2.72V74h-25.164V2.72h25.164zm44.82-1.08c7.56 0 14.04 1.44 19.44 4.32s9.54 7.056 12.42 12.528 4.32 12.096 4.32 19.872-1.44 14.4-4.32 19.872-7.02 9.648-12.42 12.528-11.88 4.32-19.44 4.32c-7.488 0-13.968-1.44-19.44-4.32-5.4-2.88-9.576-7.056-12.528-12.528-2.88-5.472-4.32-12.096-4.32-19.872s1.44-14.4 4.32-19.872c2.952-5.472 7.128-9.648 12.528-12.528 5.472-2.88 11.952-4.32 19.44-4.32zm0 18.9c-2.448 0-4.464.648-6.048 1.944-1.512 1.224-2.664 3.132-3.456 5.724-.72 2.592-1.08 5.976-1.08 10.152 0 4.104.36 7.488 1.08 10.152.792 2.592 1.944 4.536 3.456 5.832 1.584 1.224 3.6 1.836 6.048 1.836s4.428-.612 5.94-1.836c1.584-1.296 2.736-3.24 3.456-5.832.72-2.664 1.08-6.048 1.08-10.152 0-4.176-.36-7.56-1.08-10.152s-1.872-4.5-3.456-5.724c-1.512-1.296-3.492-1.944-5.94-1.944z"/></mask><path d="M39.2 2.72c6.408 0 11.844.972 16.308 2.916s7.848 4.788 10.152 8.532 3.456 8.316 3.456 13.716-1.152 9.972-3.456 13.716-5.688 6.588-10.152 8.532-9.9 2.916-16.308 2.916H26.564V74H1.4V2.72h37.8zm-4.104 32.508c2.736 0 4.896-.576 6.48-1.728 1.584-1.224 2.376-3.096 2.376-5.616s-.792-4.356-2.376-5.508c-1.584-1.224-3.744-1.836-6.48-1.836h-8.532v14.688h8.532zM111.674 1.64c7.56 0 14.04 1.44 19.44 4.32s9.54 7.056 12.42 12.528 4.32 12.096 4.32 19.872-1.44 14.4-4.32 19.872-7.02 9.648-12.42 12.528-11.88 4.32-19.44 4.32c-7.488 0-13.968-1.44-19.44-4.32-5.4-2.88-9.576-7.056-12.528-12.528-2.88-5.472-4.32-12.096-4.32-19.872s1.44-14.4 4.32-19.872c2.952-5.472 7.128-9.648 12.528-12.528 5.472-2.88 11.952-4.32 19.44-4.32zm0 18.9c-2.448 0-4.464.648-6.048 1.944-1.512 1.224-2.664 3.132-3.456 5.724-.72 2.592-1.08 5.976-1.08 10.152 0 4.104.36 7.488 1.08 10.152.792 2.592 1.944 4.536 3.456 5.832 1.584 1.224 3.6 1.836 6.048 1.836s4.428-.612 5.94-1.836c1.584-1.296 2.736-3.24 3.456-5.832.72-2.664 1.08-6.048 1.08-10.152 0-4.176-.36-7.56-1.08-10.152s-1.872-4.5-3.456-5.724c-1.512-1.296-3.492-1.944-5.94-1.944zm83.324-17.82c9.288 0 16.416 2.088 21.384 6.264 4.968 4.104 7.452 9.576 7.452 16.416 0 7.848-2.448 13.752-7.344 17.712-4.824 3.96-11.88 5.94-21.168 5.94l-2.484 1.296h-11.88V74h-24.624V2.72h38.664zm-4.32 31.104c2.664 0 4.644-.468 5.94-1.404 1.368-1.008 2.052-2.736 2.052-5.184 0-2.376-.684-4.068-2.052-5.076-1.296-1.008-3.276-1.512-5.94-1.512h-9.72v13.176h9.72zm14.904 5.292L227.83 74h-27.324l-16.632-31.212 21.708-3.672zM299.01 2.72v18.468h-22.248V74h-25.164V21.188h-22.356V2.72h69.768zm66.588 18.468h-33.913v9.936h27.432v18.468h-27.432V74h-25.164V2.72h59.077v18.468zM406.881 1.64c7.56 0 14.04 1.44 19.44 4.32s9.54 7.056 12.42 12.528 4.32 12.096 4.32 19.872-1.44 14.4-4.32 19.872-7.02 9.648-12.42 12.528-11.88 4.32-19.44 4.32c-7.488 0-13.968-1.44-19.44-4.32-5.4-2.88-9.576-7.056-12.528-12.528-2.88-5.472-4.32-12.096-4.32-19.872s1.44-14.4 4.32-19.872c2.952-5.472 7.128-9.648 12.528-12.528 5.472-2.88 11.952-4.32 19.44-4.32zm0 18.9c-2.448 0-4.464.648-6.048 1.944-1.512 1.224-2.664 3.132-3.456 5.724-.72 2.592-1.08 5.976-1.08 10.152 0 4.104.36 7.488 1.08 10.152.792 2.592 1.944 4.536 3.456 5.832 1.584 1.224 3.6 1.836 6.048 1.836s4.428-.612 5.94-1.836c1.584-1.296 2.736-3.24 3.456-5.832.72-2.664 1.08-6.048 1.08-10.152 0-4.176-.36-7.56-1.08-10.152s-1.872-4.5-3.456-5.724c-1.512-1.296-3.492-1.944-5.94-1.944zm69.824 34.992h32.292V74h-57.456V2.72h25.164v52.812zM542.096 2.72V74h-25.164V2.72h25.164zm44.82-1.08c7.56 0 14.04 1.44 19.44 4.32s9.54 7.056 12.42 12.528 4.32 12.096 4.32 19.872-1.44 14.4-4.32 19.872-7.02 9.648-12.42 12.528-11.88 4.32-19.44 4.32c-7.488 0-13.968-1.44-19.44-4.32-5.4-2.88-9.576-7.056-12.528-12.528-2.88-5.472-4.32-12.096-4.32-19.872s1.44-14.4 4.32-19.872c2.952-5.472 7.128-9.648 12.528-12.528 5.472-2.88 11.952-4.32 19.44-4.32zm0 18.9c-2.448 0-4.464.648-6.048 1.944-1.512 1.224-2.664 3.132-3.456 5.724-.72 2.592-1.08 5.976-1.08 10.152 0 4.104.36 7.488 1.08 10.152.792 2.592 1.944 4.536 3.456 5.832 1.584 1.224 3.6 1.836 6.048 1.836s4.428-.612 5.94-1.836c1.584-1.296 2.736-3.24 3.456-5.832.72-2.664 1.08-6.048 1.08-10.152 0-4.176-.36-7.56-1.08-10.152s-1.872-4.5-3.456-5.724c-1.512-1.296-3.492-1.944-5.94-1.944z" stroke="#fff" stroke-opacity=".3" stroke-width="2" mask="url(#A)"/></svg>
